X:6142
T:Soldier O.
O:england
M:6/8
C:
S:Roll Out the Bear'Ale
N:dance by Ed Stern
A:Headington
R:Jig
%P:(AB)$^{\infty}$
P:(AB)
%:
%:
K:G
I:speed 300
P:A
D | G2 G GAB  | A2 G E2 D | G2 G Bcd  | d2 c A2 \
d | e2 d B2G  | A2 G E2 E | D2 D DEF  | G3   G2 ||\
P:B
|: D | GGG  E2 D | GGG  E2 D | G2 G B2 d | d2 c A2 \
d | e2 d B2 G | A2 G E2 E | D2 D DEF  | G3   G2 :|


